packs/brands/bilibili.svg

<svg xmlns="http://www.w3.org/2000/svg" viewBox="0 0 512 512"><!--! Font Awesome Free 6.5.2 by @fontawesome - https://fontawesome.com License - https://fontawesome.com/license/free (Icons: CC BY 4.0, Fonts: SIL OFL 1.1, Code: MIT License) Copyright 2024 Fonticons, Inc.--><path d="M488.6 104.1c16.7 18.1 24.4 39.7 23.3 65.7v202.4c-.4 26.4-9.2 48.1-26.5 65.1-17.2 17-39.1 25.9-65.5 26.7H92.02c-26.45-.8-48.21-9.8-65.28-27.2C9.682 419.4.767 396.5 0 368.2V169.8c.767-26 9.682-47.6 26.74-65.7C43.81 87.75 65.57 78.77 92.02 78h29.38L96.05 52.19c-5.75-5.73-8.63-13-8.63-21.79 0-8.8 2.88-16.06 8.63-21.797C101.8 2.868 109.1 0 117.9 0q13.2 0 21.9 8.603L213.1 78h88l74.5-69.397C381.7 2.868 389.2 0 398 0q13.2 0 21.9 8.603c5.7 5.737 8.6 12.997 8.6 21.797 0 8.79-2.9 16.06-8.6 21.79L394.6 78h29.3c26.4.77 48 9.75 64.7 26.1m-38.8 69.7c-.4-9.6-3.7-17.4-10.7-23.5-5.2-6.1-14-9.4-22.7-9.8H96.05c-9.59.4-17.45 3.7-23.58 9.8-6.14 6.1-9.4 13.9-9.78 23.5v194.4c0 9.2 3.26 17 9.78 23.5s14.38 9.8 23.58 9.8H416.4c9.2 0 17-3.3 23.3-9.8s9.7-14.3 10.1-23.5zm-264.3 42.7c6.3 6.3 9.7 14.1 10.1 23.2V273c-.4 9.2-3.7 16.9-9.8 23.2-6.2 6.3-14 9.5-23.6 9.5s-17.5-3.2-23.6-9.5-9.4-14-9.8-23.2v-33.3c.4-9.1 3.8-16.9 10.1-23.2s13.2-9.6 23.3-10c9.2.4 17 3.7 23.3 10m191.5 0c6.3 6.3 9.7 14.1 10.1 23.2V273c-.4 9.2-3.7 16.9-9.8 23.2s-14 9.5-23.6 9.5-17.4-3.2-23.6-9.5c-7-6.3-9.4-14-9.7-23.2v-33.3c.3-9.1 3.7-16.9 10-23.2s14.1-9.6 23.3-10c9.2.4 17 3.7 23.3 10"/></svg>

<svg xmlns="http://www.w3.org/2000/svg" viewBox="0 0 512 512"><!--! Font Awesome Free 6.5.2 by @fontawesome - https://fontawesome.com License - https://fontawesome.com/license/free (Icons: CC BY 4.0, Fonts: SIL OFL 1.1, Code: MIT License) Copyright 2024 Fonticons, Inc. --><path d="M488.6 104.1C505.3 122.2 513 143.8 511.9 169.8V372.2C511.5 398.6 502.7 420.3 485.4 437.3C468.2 454.3 446.3 463.2 419.9 464H92.02C65.57 463.2 43.81 454.2 26.74 436.8C9.682 419.4 .7667 396.5 0 368.2V169.8C.7667 143.8 9.682 122.2 26.74 104.1C43.81 87.75 65.57 78.77 92.02 78H121.4L96.05 52.19C90.3 46.46 87.42 39.19 87.42 30.4C87.42 21.6 90.3 14.34 96.05 8.603C101.8 2.868 109.1 0 117.9 0C126.7 0 134 2.868 139.8 8.603L213.1 78H301.1L375.6 8.603C381.7 2.868 389.2 0 398 0C406.8 0 414.1 2.868 419.9 8.603C425.6 14.34 428.5 21.6 428.5 30.4C428.5 39.19 425.6 46.46 419.9 52.19L394.6 78L423.9 78C450.3 78.77 471.9 87.75 488.6 104.1H488.6zM449.8 173.8C449.4 164.2 446.1 156.4 439.1 150.3C433.9 144.2 425.1 140.9 416.4 140.5H96.05C86.46 140.9 78.6 144.2 72.47 150.3C66.33 156.4 63.07 164.2 62.69 173.8V368.2C62.69 377.4 65.95 385.2 72.47 391.7C78.99 398.2 86.85 401.5 96.05 401.5H416.4C425.6 401.5 433.4 398.2 439.7 391.7C446 385.2 449.4 377.4 449.8 368.2L449.8 173.8zM185.5 216.5C191.8 222.8 195.2 230.6 195.6 239.7V273C195.2 282.2 191.9 289.9 185.8 296.2C179.6 302.5 171.8 305.7 162.2 305.7C152.6 305.7 144.7 302.5 138.6 296.2C132.5 289.9 129.2 282.2 128.8 273V239.7C129.2 230.6 132.6 222.8 138.9 216.5C145.2 210.2 152.1 206.9 162.2 206.5C171.4 206.9 179.2 210.2 185.5 216.5H185.5zM377 216.5C383.3 222.8 386.7 230.6 387.1 239.7V273C386.7 282.2 383.4 289.9 377.3 296.2C371.2 302.5 363.3 305.7 353.7 305.7C344.1 305.7 336.3 302.5 330.1 296.2C323.1 289.9 320.7 282.2 320.4 273V239.7C320.7 230.6 324.1 222.8 330.4 216.5C336.7 210.2 344.5 206.9 353.7 206.5C362.9 206.9 370.7 210.2 377 216.5H377z"/></svg>
